packages/foundations/assets/icons/functional/images/navigation/magnifying_glass_28.svg

<svg width="28" height="28" viewBox="0 0 28 28" fill="none" xmlns="http://www.w3.org/2000/svg">
<g clip-path="url(#clip0_187_96)">
<path fill-rule="evenodd" clip-rule="evenodd" d="M11.375 2.625C16.2148 2.625 20.125 6.53516 20.125 11.375C20.125 13.4805 19.3867 15.3945 18.1562 16.8984L25.1289 23.8711C25.293 24.0352 25.375 24.2812 25.375 24.5C25.375 25.0195 24.9922 25.375 24.5 25.375C24.2812 25.375 24.0625 25.3203 23.8711 25.1289L16.8984 18.1562C15.3945 19.3867 13.4805 20.125 11.375 20.125C6.53516 20.125 2.625 16.2148 2.625 11.375C2.625 6.53516 6.53516 2.625 11.375 2.625ZM11.375 4.375C7.51953 4.375 4.375 7.51953 4.375 11.375C4.375 15.2305 7.51953 18.375 11.375 18.375C15.2305 18.375 18.375 15.2305 18.375 11.375C18.375 7.51953 15.2305 4.375 11.375 4.375Z" fill="#1A1C1F"/>
</g>
<defs>
<clipPath id="clip0_187_96">
<rect width="28" height="28" fill="white"/>
</clipPath>
</defs>
</svg>

<svg xmlns="http://www.w3.org/2000/svg" width="28" height="28" fill="none"><g clip-path="url(#a)"><path fill="#1A1C1F" fill-rule="evenodd" d="M11.375 2.625a8.74 8.74 0 0 1 8.75 8.75c0 2.105-.738 4.02-1.969 5.523l6.973 6.973c.164.164.246.41.246.629 0 .52-.383.875-.875.875a.84.84 0 0 1-.629-.246l-6.973-6.973a8.67 8.67 0 0 1-5.523 1.969 8.74 8.74 0 0 1-8.75-8.75 8.74 8.74 0 0 1 8.75-8.75m0 1.75c-3.855 0-7 3.145-7 7s3.145 7 7 7 7-3.145 7-7-3.145-7-7-7" clip-rule="evenodd"/></g><defs><clipPath id="a"><path fill="#fff" d="M0 0h28v28H0z"/></clipPath></defs></svg>
